teeny/solid/double-caret-right-small.svg

<svg width="15" height="15" viewBox="0 0 15 15" fill="none" xmlns="http://www.w3.org/2000/svg">
<path fill-rule="evenodd" clip-rule="evenodd" d="M5.50001 4.79291L8.20712 7.50001L5.50001 10.2071L4.79291 9.50001L6.79291 7.50001L4.79291 5.50001L5.50001 4.79291ZM8.50001 4.79291L11.2071 7.50001L8.50001 10.2071L7.79291 9.50001L9.79291 7.50001L7.79291 5.50001L8.50001 4.79291Z" fill="black"/>
</svg>

<svg viewBox="0 0 15 15" xmlns="http://www.w3.org/2000/svg"><path fill-rule="evenodd" d="M5.5 4.79l2.7 2.7 -2.71 2.7 -.71-.71 2-2 -2-2 .7-.71Zm3 0l2.7 2.7 -2.71 2.7 -.71-.71 2-2 -2-2 .7-.71Z"/></svg>
